src/assets/img/providers/relax.svg

<svg width="90" height="28" viewBox="0 0 90 28" fill="none" xmlns="http://www.w3.org/2000/svg">
<path fill-rule="evenodd" clip-rule="evenodd" d="M10.6622 9.36212L14.3907 15.6035C14.3907 15.6035 14.3907 15.6902 14.5642 15.7769C14.5642 15.9503 14.4775 16.037 14.304 16.037H11.3559C11.1825 16.037 11.009 15.9503 10.9223 15.7769L7.4539 9.70886H3.55192V15.6902C3.55192 15.8636 3.3785 16.037 3.20508 16.037H0.430339C0.256917 16.037 0.0834961 15.8636 0.0834961 15.6902V0.346745C0.0834961 0.173373 0.256917 0 0.430339 0H7.36719H8.14758C11.3559 0.0866863 13.9572 0.953549 13.8705 4.76775C13.8705 7.62839 12.5698 8.92869 10.6622 9.36212ZM7.36719 6.9349L8.23429 6.84822C9.96851 6.84822 10.4888 5.98135 10.5755 4.85443C10.5755 3.72751 10.0552 2.86065 8.23429 2.86065H7.4539H3.46521V6.9349H7.36719ZM77.6898 2.34053C77.6898 3.63317 76.6417 4.68106 75.3486 4.68106C74.0556 4.68106 73.0075 3.63317 73.0075 2.34053C73.0075 1.04789 74.0556 0 75.3486 0C76.6417 0 77.6898 1.04789 77.6898 2.34053ZM40.7512 27.9993C41.0113 27.9993 41.098 27.8259 41.098 27.4792L40.1442 22.278C40.1442 22.1046 40.0575 22.0179 39.9708 21.9313C39.8841 21.8446 39.7974 21.8446 39.6239 21.8446C39.4505 21.8446 39.3638 21.8446 39.2771 21.9313C39.1904 22.0179 39.1037 22.1046 39.1037 22.1913L37.8897 26.5256L36.6758 22.278C36.6758 22.1913 36.5891 22.1046 36.5024 22.0179C36.4157 21.9313 36.3289 21.9313 36.1555 21.9313C36.0688 21.9313 35.8954 22.0179 35.8087 22.1046C35.722 22.1913 35.6353 22.278 35.6353 22.4514L34.7682 27.3925V27.5659C34.7682 27.8259 34.9416 27.9993 35.115 27.9993C35.3751 27.9993 35.5485 27.9126 35.5485 27.6525L36.2422 22.8848L37.6296 27.6525C37.6296 27.8259 37.803 27.9126 37.9764 27.9126C38.1499 27.9126 38.2366 27.8259 38.3233 27.6525L39.7107 22.8848L40.4043 27.6525C40.4043 27.9126 40.5778 27.9993 40.7512 27.9993ZM5.2862 25.2254C5.2862 26.2656 5.02607 26.9591 4.41909 27.4792C4.07225 27.826 3.55199 27.9127 2.8583 27.9127C1.9912 27.9127 1.38422 27.5659 0.86396 26.9591C0.430407 26.3523 0.256985 25.7455 0.256985 25.052C0.256985 24.1852 0.430407 23.4917 0.95067 22.8849C1.2108 22.6248 1.47093 22.3647 1.73107 22.1914C2.07791 22.018 2.42475 21.9313 2.8583 21.9313C3.22859 21.9313 3.53563 21.9945 3.88746 22.067L3.88749 22.067C3.94759 22.0794 4.009 22.092 4.07225 22.1047C4.41909 22.1914 4.67923 22.3647 4.85265 22.6248C4.93936 22.7115 4.93936 22.7982 4.93936 22.8849C4.93936 22.9715 4.93936 23.0582 4.85265 23.1449C4.76594 23.2316 4.67923 23.2316 4.59252 23.2316C4.50581 23.2316 4.4191 23.2316 4.33238 23.1449C4.21836 23.0689 4.12099 22.9929 4.03299 22.9242L4.03296 22.9242L4.03294 22.9242L4.03292 22.9242L4.03291 22.9242C3.92017 22.8362 3.82279 22.7602 3.72541 22.7115C3.68118 22.6967 3.63946 22.682 3.59897 22.6677L3.59852 22.6675L3.59819 22.6674L3.59798 22.6674L3.59786 22.6673C3.40066 22.5976 3.23235 22.5381 2.94501 22.5381C2.33804 22.5381 1.81778 22.7982 1.47093 23.3183C1.2108 23.7517 1.03738 24.2718 1.03738 24.8786C1.03738 25.7455 1.29751 26.3523 1.73107 26.8724C1.9912 27.1325 2.33804 27.3059 2.77159 27.3059C3.03172 27.3059 3.37857 27.2192 3.6387 27.1325C4.24567 26.8724 4.59252 26.2656 4.59252 25.4854V25.2254H3.55199C3.37857 25.2254 3.20515 25.1387 3.20515 24.8786C3.20515 24.6186 3.29186 24.5319 3.55199 24.5319H4.85265C5.11278 24.5319 5.2862 24.792 5.2862 25.1387V25.2254ZM89.8292 25.2254C89.8292 26.2656 89.5691 26.9591 88.9621 27.4792C88.6153 27.826 88.095 27.9127 87.4013 27.9127C86.5342 27.9127 85.9273 27.5659 85.407 26.9591C84.9734 26.3523 84.8 25.7455 84.8 25.052C84.8 24.1852 84.9734 23.4917 85.4937 22.8849C85.7538 22.6248 86.014 22.3647 86.2741 22.1914C86.6209 22.018 86.9678 21.9313 87.4013 21.9313C87.7716 21.9313 88.0787 21.9945 88.4305 22.067L88.4306 22.067L88.4307 22.0671L88.4309 22.0671L88.431 22.0671C88.4909 22.0795 88.5522 22.0921 88.6153 22.1047C88.9621 22.1914 89.2223 22.3647 89.3957 22.6248C89.4824 22.7115 89.4824 22.7982 89.4824 22.8849C89.4824 22.9715 89.4824 23.0582 89.3957 23.1449C89.309 23.2316 89.2223 23.2316 89.1356 23.2316C89.0488 23.2316 88.9621 23.2316 88.8754 23.1449C88.7614 23.0689 88.664 22.9929 88.576 22.9242C88.4632 22.8362 88.3658 22.7602 88.2684 22.7115C88.2238 22.6966 88.1817 22.6817 88.1409 22.6673C87.9437 22.5976 87.7754 22.5381 87.4881 22.5381C86.8811 22.5381 86.3608 22.7982 86.014 23.3183C85.7538 23.7517 85.5804 24.2718 85.5804 24.8786C85.5804 25.7455 85.8406 26.3523 86.2741 26.8724C86.5342 27.1325 86.8811 27.3059 87.3146 27.3059C87.5748 27.3059 87.9216 27.2192 88.1817 27.1325C88.7887 26.8724 89.1356 26.2656 89.1356 25.4854V25.2254H88.095C87.9216 25.2254 87.7482 25.1387 87.7482 24.8786C87.7482 24.6186 87.8349 24.5319 88.095 24.5319H89.3957C89.7425 24.5319 89.9159 24.7053 89.9159 25.052V25.2254H89.8292ZM54.6247 27.567C54.6247 27.827 54.538 28.0004 54.2779 28.0004C54.0179 28.0004 53.9312 27.9137 53.9312 27.6537V22.4525C53.9312 22.1924 54.0179 22.1057 54.2779 22.1057C54.538 22.1057 54.6247 22.1924 54.6247 22.4525V27.567ZM71.7065 27.9127C71.9666 27.9127 72.0534 27.826 72.0534 27.5659H71.8799V22.3647C71.8799 22.1047 71.7932 22.018 71.5331 22.018C71.4464 22.018 71.3597 22.018 71.273 22.1047C71.1862 22.1914 71.1862 22.2781 71.1862 22.3647V26.6124L68.1514 22.1914C67.978 22.018 67.8912 21.9313 67.7178 21.9313C67.5444 21.9313 67.4577 22.018 67.4577 22.2781V27.4792C67.4577 27.7393 67.5444 27.826 67.8045 27.826C68.0647 27.826 68.1514 27.7393 68.1514 27.4792V23.2316L71.273 27.6526C71.4464 27.826 71.5331 27.9127 71.7065 27.9127ZM22.4551 27.6537C22.4551 27.827 22.3684 27.9137 22.1082 27.9137C22.0215 27.9137 21.9348 27.9137 21.8481 27.827H21.8481C21.8047 27.827 21.7831 27.827 21.7722 27.8162C21.7614 27.8054 21.7614 27.7837 21.7614 27.7404L21.4145 26.7001H18.7265L18.2063 27.7404C18.1195 27.9137 18.0328 28.0004 17.8594 28.0004C17.686 28.0004 17.5126 27.9137 17.5126 27.7404V27.6537V27.567L19.4202 22.5392C19.4533 22.473 19.4738 22.4194 19.4913 22.3736C19.5196 22.2996 19.54 22.246 19.5936 22.1924C19.6803 22.1057 19.767 22.1057 19.8538 22.1057C19.9405 22.1057 20.0272 22.1057 20.2006 22.1924C20.2873 22.2791 20.374 22.3658 20.374 22.5392L22.2817 27.567C22.4551 27.567 22.4551 27.6537 22.4551 27.6537ZM21.1544 26.0066L20.0272 22.7992L18.8132 26.0066H21.1544ZM89.9161 2.34053C89.9161 3.64082 88.8756 4.68106 87.5749 4.68106C86.2743 4.68106 85.2337 3.64082 85.2337 2.34053C85.2337 1.04024 86.2743 0 87.5749 0C88.8756 0 89.9161 1.04024 89.9161 2.34053ZM77.6898 13.7833C77.6898 15.0759 76.6417 16.1238 75.3486 16.1238C74.0556 16.1238 73.0075 15.0759 73.0075 13.7833C73.0075 12.4906 74.0556 11.4428 75.3486 11.4428C76.6417 11.4428 77.6898 12.4906 77.6898 13.7833ZM89.9161 13.7833C89.9161 15.0836 88.8756 16.1238 87.5749 16.1238C86.2743 16.1238 85.2337 15.0836 85.2337 13.7833C85.2337 12.483 86.2743 11.4428 87.5749 11.4428C88.8756 11.4428 89.9161 12.483 89.9161 13.7833ZM81.5047 10.4024C82.8054 10.4024 83.8459 9.3622 83.8459 8.0619C83.8459 6.76161 82.8054 5.72138 81.5047 5.72138C80.204 5.72138 79.1635 6.76161 79.1635 8.0619C79.1635 9.3622 80.204 10.4024 81.5047 10.4024ZM69.105 15.6035L62.6017 0.260059C62.515 0.0866863 62.4283 0 62.2549 0H60.9542H60.7808H59.4801C59.3067 0 59.22 0.0866863 59.1333 0.260059L52.5433 15.6035V15.6902C52.5433 15.8636 52.63 15.9503 52.8034 15.9503H55.7516C55.925 15.9503 56.0117 15.8636 56.0984 15.6902L57.4858 12.1361H64.4226L65.81 15.6902C65.8967 15.8636 65.9834 15.9503 66.1568 15.9503H69.105C69.2784 15.9503 69.3651 15.8636 69.3651 15.6902C69.2635 15.6902 69.2215 15.6605 69.1866 15.6358C69.1619 15.6184 69.1409 15.6035 69.105 15.6035ZM58.4396 9.36212L60.8675 3.20739L63.2954 9.36212H58.4396ZM23.3218 4.07426C23.3218 4.07426 23.0616 4.33431 22.8882 4.94112C22.8015 5.54792 22.7148 6.3281 22.7148 6.3281V6.50147H31.7327C31.9061 6.50147 32.0796 6.67484 32.0796 6.84822V9.01537C32.0796 9.18875 31.9061 9.36212 31.7327 9.36212H22.7148V9.70886C22.7148 9.70886 22.7148 10.489 22.8882 11.0958C23.0616 11.616 23.3218 11.9627 23.3218 11.9627C23.3218 11.9627 23.6686 12.5695 24.449 12.9163C25.1427 13.263 25.9231 13.263 25.9231 13.263H31.7327C31.9061 13.263 32.0796 13.4364 32.0796 13.6097V15.7769C32.0796 15.9503 31.9061 16.1236 31.7327 16.1236H25.3161C21.761 16.1236 18.8995 13.0029 18.8995 9.18875V8.2352V8.14851V7.97514V7.88845V6.9349C18.8995 3.12071 21.761 0 25.3161 0H31.7327C31.9061 0 32.0796 0.173373 32.0796 0.346745V2.42722C32.0796 2.60059 31.9061 2.77396 31.7327 2.77396H25.9231C25.9231 2.77396 25.2294 2.77396 24.449 3.12071C23.6686 3.46745 23.3218 4.07426 23.3218 4.07426ZM42.8314 15.9503H48.1208C48.2942 15.9503 48.3809 15.7769 48.3809 15.6035V13.4364C48.3809 13.263 48.2942 13.0896 48.1208 13.0896H43.3517C43.3517 13.0896 42.7447 13.0896 42.1377 12.7429C41.5308 12.3961 41.1839 11.7893 41.1839 11.7893C41.1839 11.7893 40.8371 11.4426 40.8371 10.8358V9.62218V8.06182V0.260059C40.8371 0.0866863 40.7504 0 40.5769 0H37.8022C37.6288 0 37.4554 0.173373 37.4554 0.346745V0.433431V8.14851V9.18875V10.8358V10.9225C37.5421 13.6964 39.8833 15.9503 42.8314 15.9503Z" fill="#919EAB"/>
</svg>

<svg width="90" height="28" fill="none" xmlns="http://www.w3.org/2000/svg"><path fill-rule="evenodd" clip-rule="evenodd" d="m10.662 9.362 3.729 6.242s0 .086.173.173c0 .173-.087.26-.26.26h-2.948a.477.477 0 0 1-.434-.26L7.454 9.709H3.552v5.981a.373.373 0 0 1-.347.347H.43a.373.373 0 0 1-.347-.347V.347C.083.173.257 0 .43 0H8.147c3.209.087 5.81.954 5.723 4.768 0 2.86-1.3 4.16-3.208 4.594ZM7.367 6.935l.867-.087c1.735 0 2.255-.867 2.341-1.994 0-1.126-.52-1.993-2.34-1.993h-4.77v4.074h3.902ZM77.69 2.34a2.34 2.34 0 1 1-4.682-.001 2.34 2.34 0 0 1 4.682 0ZM40.75 27.999c.26 0 .347-.173.347-.52l-.954-5.201c0-.173-.087-.26-.173-.347-.087-.086-.174-.086-.347-.086-.174 0-.26 0-.347.086-.087.087-.173.174-.173.26l-1.214 4.335-1.214-4.248c0-.087-.087-.173-.174-.26-.086-.087-.173-.087-.346-.087-.087 0-.26.087-.347.174-.087.086-.174.173-.174.346l-.867 4.941v.174c0 .26.174.433.347.433.26 0 .433-.086.433-.346l.694-4.768 1.388 4.767c0 .174.173.26.346.26.174 0 .26-.086.347-.26l1.388-4.767.693 4.767c0 .26.174.347.347.347ZM5.286 25.225c0 1.04-.26 1.734-.867 2.254-.347.347-.867.434-1.56.434-.868 0-1.475-.347-1.995-.954a3.12 3.12 0 0 1-.607-1.907c0-.867.173-1.56.694-2.167.26-.26.52-.52.78-.694a2.4 2.4 0 0 1 1.127-.26c.37 0 .678.063 1.03.136l.184.038c.347.086.607.26.78.52.087.087.087.173.087.26 0 .086 0 .173-.086.26-.087.087-.174.087-.26.087-.087 0-.174 0-.26-.087a4.811 4.811 0 0 1-.3-.22 1.97 1.97 0 0 0-.308-.213 7.936 7.936 0 0 1-.126-.044h-.001c-.197-.07-.366-.13-.653-.13-.607 0-1.127.26-1.474.78-.26.434-.434.954-.434 1.56 0 .867.26 1.474.694 1.994.26.26.607.434 1.04.434.26 0 .608-.087.868-.174.607-.26.954-.866.954-1.647v-.26H3.552c-.173 0-.347-.086-.347-.346s.087-.347.347-.347h1.3c.26 0 .434.26.434.607v.086Zm84.543 0c0 1.04-.26 1.734-.867 2.254-.347.347-.867.434-1.56.434-.868 0-1.475-.347-1.995-.954a3.12 3.12 0 0 1-.607-1.907c0-.867.173-1.56.694-2.167.26-.26.52-.52.78-.694a2.4 2.4 0 0 1 1.127-.26c.37 0 .678.063 1.03.136l.184.038c.347.086.607.26.78.52.087.087.087.173.087.26 0 .086 0 .173-.086.26-.087.087-.174.087-.26.087-.087 0-.174 0-.26-.087a4.818 4.818 0 0 1-.3-.22c-.113-.089-.21-.165-.308-.213l-.127-.045c-.197-.07-.366-.129-.653-.129-.607 0-1.127.26-1.474.78-.26.434-.434.954-.434 1.56 0 .867.26 1.474.694 1.994.26.26.607.434 1.04.434.26 0 .608-.087.868-.174.607-.26.954-.866.954-1.647v-.26h-1.041c-.173 0-.347-.086-.347-.346s.087-.347.347-.347h1.3c.348 0 .52.173.52.52v.173h-.086Zm-35.204 2.342c0 .26-.087.433-.347.433s-.347-.086-.347-.346v-5.201c0-.26.087-.347.347-.347s.347.086.347.346v5.115Zm17.082.346c.26 0 .346-.087.346-.347h-.173v-5.201c0-.26-.087-.347-.347-.347-.087 0-.173 0-.26.087-.087.086-.087.173-.087.26v4.247l-3.035-4.42c-.173-.174-.26-.26-.433-.26-.174 0-.26.086-.26.346v5.201c0 .26.086.347.347.347.26 0 .346-.087.346-.347v-4.247l3.122 4.42c.173.174.26.26.434.26Zm-49.252-.26c0 .174-.087.26-.347.26-.087 0-.173 0-.26-.086-.043 0-.065 0-.076-.01-.01-.012-.01-.033-.01-.077l-.348-1.04h-2.688l-.52 1.04c-.087.174-.173.26-.347.26-.173 0-.346-.086-.346-.26v-.173l1.907-5.028c.033-.066.054-.12.071-.165.029-.074.049-.128.103-.182.086-.086.173-.086.26-.086.087 0 .173 0 .347.086.086.087.173.174.173.347l1.908 5.028c.173 0 .173.087.173.087Zm-1.3-1.646-1.128-3.208-1.214 3.208h2.341ZM89.915 2.34c0 1.3-1.04 2.34-2.341 2.34-1.3 0-2.341-1.04-2.341-2.34 0-1.3 1.04-2.341 2.34-2.341 1.302 0 2.342 1.04 2.342 2.34ZM77.69 13.783a2.34 2.34 0 1 1-4.682 0 2.34 2.34 0 0 1 4.682 0Zm12.226 0c0 1.3-1.04 2.34-2.341 2.34-1.3 0-2.341-1.04-2.341-2.34 0-1.3 1.04-2.34 2.34-2.34 1.302 0 2.342 1.04 2.342 2.34Zm-8.411-3.38c1.3 0 2.34-1.04 2.34-2.341 0-1.3-1.04-2.34-2.34-2.34-1.301 0-2.341 1.04-2.341 2.34 0 1.3 1.04 2.34 2.34 2.34Zm-12.4 5.2L62.602.26c-.087-.173-.174-.26-.347-.26H59.48c-.174 0-.261.087-.348.26l-6.59 15.344v.086c0 .174.087.26.26.26h2.949c.173 0 .26-.086.346-.26l1.388-3.554h6.937l1.387 3.554c.087.174.173.26.347.26h2.948c.173 0 .26-.086.26-.26a.264.264 0 0 1-.178-.054c-.025-.018-.046-.032-.082-.032ZM58.44 9.364l2.428-6.156 2.427 6.155H58.44ZM23.322 4.073s-.26.26-.434.867c-.087.607-.173 1.387-.173 1.387v.173h9.018c.173 0 .347.174.347.347v2.167a.373.373 0 0 1-.347.347h-9.018v.347s0 .78.173 1.387c.174.52.434.867.434.867s.347.607 1.127.953c.694.347 1.474.347 1.474.347h5.81c.173 0 .347.173.347.347v2.167a.373.373 0 0 1-.347.347h-6.417c-3.555 0-6.416-3.121-6.416-6.935V6.935C18.9 3.12 21.76 0 25.316 0h6.417c.173 0 .347.173.347.347v2.08a.373.373 0 0 1-.347.347h-5.81s-.694 0-1.474.347c-.78.346-1.127.953-1.127.953Zm19.51 11.876h5.289c.173 0 .26-.173.26-.346v-2.168c0-.173-.087-.346-.26-.346h-4.77s-.606 0-1.213-.347c-.607-.347-.954-.954-.954-.954s-.347-.346-.347-.953V.26c0-.173-.087-.26-.26-.26h-2.775a.373.373 0 0 0-.347.347V10.922c.087 2.774 2.428 5.028 5.376 5.028Z" fill="#919EAB"/></svg>
